images/submarine.svg

<svg xmlns="http://www.w3.org/2000/svg" viewBox="0 0 960 560" enable-background="new 0 0 960 560"><g><path fill="#fff" d="M607 277c67.8 0 123 55.2 123 123s-55.2 123-123 123h-382c-67.8 0-123-55.2-123-123s55.2-123 123-123h382z"/><path d="M607 267c73.3 0 133 59.7 133 133s-59.7 133-133 133h-382c-73.3 0-133-59.7-133-133s59.7-133 133-133h382zm123 133c0-67.8-55.2-123-123-123h-382c-67.8 0-123 55.2-123 123s55.2 123 123 123h382c67.8 0 123-55.2 123-123z"/></g><path d="M287.1 445.6c-28.4 0-51.5-23.1-51.5-51.5s23.1-51.5 51.5-51.5 51.5 23.1 51.5 51.5-23.1 51.5-51.5 51.5zm0-93c-22.9 0-41.5 18.6-41.5 41.5s18.6 41.5 41.5 41.5 41.5-18.6 41.5-41.5-18.6-41.5-41.5-41.5zM287.1 463.2c-38.1 0-69.1-31-69.1-69.1s31-69.1 69.1-69.1 69.1 31 69.1 69.1-31 69.1-69.1 69.1zm0-133.2c-35.4 0-64.1 28.8-64.1 64.1s28.8 64.1 64.1 64.1 64.1-28.8 64.1-64.1-28.7-64.1-64.1-64.1zM847.3 529.8h-114v-265.5h114v265.5zm-106.5-7.5h99v-250.5h-99v250.5z"/><g><path fill="#fff" d="M505 154.1v117.9h-226v-117.9c11-4.1 22-7.5 33-10.4 17.8-4.7 35.2-7.8 52.8-9.4 4.1-.4 8.2-.7 12.3-.9 13.7-.7 27.4-.5 41 .6 29.5 2.6 58.7 9.3 86.9 20.1z"/><path stroke="#000" stroke-width="8" stroke-miterlimit="10" d="M505 154.1v117.9h-226v-117.9c11-4.1 22-7.5 33-10.4 17.8-4.7 35.2-7.8 52.8-9.4 4.1-.4 8.2-.7 12.3-.9 13.7-.7 27.4-.5 41 .6 29.5 2.6 58.7 9.3 86.9 20.1z" fill="none"/></g></svg>

<?xml version="1.0" encoding="utf-8"?>
<!-- Generator: Adobe Illustrator 18.1.1, SVG Export Plug-In . SVG Version: 6.00 Build 0)  -->
<!DOCTYPE svg PUBLIC "-//W3C//DTD SVG 1.1//EN" "http://www.w3.org/Graphics/SVG/1.1/DTD/svg11.dtd">
<svg version="1.1" id="Layer_1" xmlns="http://www.w3.org/2000/svg" xmlns:xlink="http://www.w3.org/1999/xlink" x="0px" y="0px"
	 viewBox="0 0 960 560" enable-background="new 0 0 960 560" xml:space="preserve">
<g>
	<g id="XMLID_1_">
		<g>
			<path fill="#FFFFFF" d="M607,277c67.8,0,123,55.2,123,123s-55.2,123-123,123H225c-67.8,0-123-55.2-123-123s55.2-123,123-123H607z
				"/>
			<path d="M607,267c73.3,0,133,59.7,133,133s-59.7,133-133,133H225c-73.3,0-133-59.7-133-133s59.7-133,133-133H607z M730,400
				c0-67.8-55.2-123-123-123H225c-67.8,0-123,55.2-123,123s55.2,123,123,123h382C674.8,523,730,467.8,730,400z"/>
		</g>
		<g>
		</g>
	</g>
</g>
<g>
	<path d="M287.1,445.6c-28.4,0-51.5-23.1-51.5-51.5c0-28.4,23.1-51.5,51.5-51.5s51.5,23.1,51.5,51.5
		C338.6,422.5,315.5,445.6,287.1,445.6z M287.1,352.6c-22.9,0-41.5,18.6-41.5,41.5s18.6,41.5,41.5,41.5s41.5-18.6,41.5-41.5
		S310,352.6,287.1,352.6z"/>
</g>
<g>
	<path d="M287.1,463.2c-38.1,0-69.1-31-69.1-69.1s31-69.1,69.1-69.1s69.1,31,69.1,69.1S325.2,463.2,287.1,463.2z M287.1,330
		c-35.4,0-64.1,28.8-64.1,64.1s28.8,64.1,64.1,64.1s64.1-28.8,64.1-64.1S322.5,330,287.1,330z"/>
</g>
<g>
	<path d="M847.3,529.8h-114V264.3h114V529.8z M740.8,522.3h99V271.8h-99V522.3z"/>
</g>
<g id="XMLID_2_">
	<g>
		<path fill="#FFFFFF" d="M505,154.1V272H279V154.1c11-4.1,22-7.5,33-10.4c17.8-4.7,35.2-7.8,52.8-9.4c4.1-0.4,8.2-0.7,12.3-0.9
			c13.7-0.7,27.4-0.5,41,0.6C447.6,136.6,476.8,143.3,505,154.1z"/>
	</g>
	<g>
		<path fill="none" stroke="#000000" stroke-width="8" stroke-miterlimit="10" d="M505,154.1V272H279V154.1c11-4.1,22-7.5,33-10.4
			c17.8-4.7,35.2-7.8,52.8-9.4c4.1-0.4,8.2-0.7,12.3-0.9c13.7-0.7,27.4-0.5,41,0.6C447.6,136.6,476.8,143.3,505,154.1z"/>
	</g>
</g>
</svg>
